X:1
T:Title
%%score 1 2 3 4
L:1/8
M:3/2
K:C
V:1 treble-8 nm="Part_1"
V:2 bass nm="Part_2"
V:3 bass nm="Part_3"
V:4 bass nm="Part_4"
V:1
 A6 B2 c4 | d2 f4 ed e4 | d6 cB c2 A2- | AG FE D2 d4 ^c2 | d4 z4 e4 | f3 d c2 d4 c2 | d8 c4 | %7
 z2 f3 e c2 d3 c | A8 z2 f2- | fe d2 c2 d2 A3 B | c2 d4 c2 dc_BA | c2 B3 A A4 ^G2 | A12 || %13
[M:2/2] c8 | c4 c4- | c2 c2 B4 | A4 z4 | z8 | z8 | (3:2:2F4 G2 AF _B2 | A2 _Bcde f2- | fe d4 c2 | %22
 f8 | e4 z2 A2 | (3:2:2c4 d2 e4 | z2 e6 | c2 ABcd e2- | ed d4 ^c2 | d4 z2 A2- | A4 F2 DE | %30
 FG A3 G G2- | G2 F2 G2 (3:2:1_B3- | (3:2:2B A2 A4 G2 | A8 | z4 e4- | e2 f2 e2 f2- | f2 ed c4- | %37
 c4 f4- | f2 f2 e4 | d4 c2 d2 | c2 A2 B4 | A8 | z2 f4 ed | c2 d2 A4 | z4 e4 | f2 d2 f4 | %46
 e2 (3:2:2g4 f2 f2- | f2 e2 e4 | d6 cB | c8 ||[M:3/2] e4 c2 A2 B4 | A3 B c2 d4 ^c2 | %52
 d2 A2 z2 d2 c2 A2 | B2 (3:2:2c4 A2 A2 G2 FE | F2 f2 e2 (3:2:2d4 c2 c2 | _B2 A4 G2 A4 | %56
 z2 A4 d4 ^c2 | d8 z2 e2 | (3:2:2f4 e2 c2 d2 B4 | A4 z2 DEFG A2- | A2 ^G2 A2 (3:2:2c4 d2 ef | %61
 g3 e f2 edcB c2 | d2 (3:2:2f4 e2 c2 d4 | c4 z2 c4 _B2 | (3:2:2A4 G2 FE A4 G2 | %65
 (3:2:2c4 d2 e2 f2 g2 e2 | f2 ed c2 f4 e2 | d2 (3:2:2e4 d2 d4 ^c2 | d12 |] %69
V:2
 A,4 F,2 D,2 E,4 | D,8 C,4 | F,4 G,4 A,3 G, | F,E, D,2 F,2 G,2 E,4 | D,4 z2 D,2 G,4 | F,2 D,2 A,8 | %6
 F,2 D,2 F,2 G,2 A,4 | F,4 D,2 A,4 G,2 | C6 B,A, A,4- | A,4 z2 A,4 C2- | CA, _B,2 A,4 F,2 G,2 | %11
 F,2 G,2 E,2 F,2 E,4 | E,12 ||[M:2/2] C,3 D,E,C, F,2 | E,2 F,G,A,B, C2- | CB, A,4 ^G,2 | A,4 F,4 | %17
 F,4 F,4- | F,2 F,2 E,4 | D,4 z2 D,2 | F,2 D,2 A,4- | A,8 | A,6 G,F, | C8 | C4 C4- | C2 C2 B,4 | %26
 A,4 G,2 A,2 | F,2 D,2 E,4 | D,2 A,6 | F,2 D,2 z2 D,2- | D,4 B,,2 C,2 | A,,4 E,2 G,2 | %32
 E,2 F,2 D,4 | C,8 | C8 | C6 B,A, | A,8- | A,4 z2 A,2- | A,2 F,G, A,B, C2- | CB, B,2 A,2 B,2- | %40
 B,A, A,4 ^G,2 | A,4 z2 F,2- | F,2 E,D, C,2 D,2 | A,,4 z2 F,2- | F,E, D,4 C,2 | D,2 F,3 G,A,B, | %46
 C4 A,2 _B,2- | B,A, C3 _B, A,2 | G,2 A,4 G,2 | A,8 ||[M:3/2] E,6 F,2 G,4 | A,4 F,2 D,2 E,4 | %52
 D,3 E, F,2 G,4 F,2 | G,2 E,3 D, D,4 C,2 | D,2 A,3 G, G,2 E,2 F,2 | G,2 C,2 D,4 C,4 | A,,4 z2 A,6 | %57
 _B,2 A,4 D4 C2 | D2 D,E,F,G, A,4 ^G,2 | A,2 E,2 F,3 E, C,2 D,2 | B,,4 A,,4 z2 A,2 | %61
 _B,3 A, F,2 G,2 E,4 | D,4 A,8 | z2 A,6 F,2 G,2- | G,F, A,3 G,F,E, D,4 | F,4 E,2 A,2 G,2 A,2- | %66
 A,G, F,2 E,2 C6 | A,2 C2 B, A,2 G, A,4- | A,12 |] %69
V:3
 z12 | z12 | z12 | z12 | A,,6 B,,2 C,4 | D,2 F,4 E,D, E,4 | D,2 F,4 E,D, E,4 | D,4 z4 z4 | %8
 F,8 F,4 | F,8 F,4 | E,8 D,4 | C,2 D,2 C,2 A,,2 B,,4 | A,,12 ||[M:2/2] z8 | z8 | z8 | z8 | z8 | %18
 z8 | F,8 | F,4 F,4- | F,2 F,2 E,4 | D,8 | C,3 D,E,C, F,2 | E,2 F,G, A,B, C2- | CB, A,4 ^G,2 | %26
 A,4 z2 E,2 | F,2 G,2 A,4 | F,8 | F,4 F,4- | F,2 F,2 E,4 | D,4 C,2 D,2 | C,2 A,,2 _B,,4 | A,,8- | %34
 A,,8 | A,,8 | z2 E,4 F,2 | E,2 F,3 E,D,C, | D,4 A,,4 | z8 | z8 | z2 F,4 E,D, | C,2 D,2 A,,4 | %43
 z2 F,4 E,D, | C,2 D,2 G,,4 | A,,4 z2 F,2 | G,2 E,2 F,4 | G,4 C,4 | D,8 | E,8 ||[M:3/2] z12 | z12 | %52
 z12 | z12 | A,,6 B,,2 C,4 | D,2 F,4 E,D, E,4 | D,2 F,4 E,D, E,4 | D,4 z4 z4 | z12 | z12 | z12 | %61
 z12 | F,6 F,2 F,4 | E,8 D,4 | C,2 D,2 C,2 A,,2 _B,,4 | A,,8 z4 | A,8 G,4 | F,2 G,2 F,2 D,2 E,4 | %68
 D,12 |] %69
V:4
 z12 | z12 | z12 | z4 z4 A,,4 | F,,2 D,,2 F,,2 G,,2 E,,4 | D,,4 z4 A,,4 | _B,,8 A,,4 | %7
 _B,,3 A,, B,,2 A,,2 B,,2 A,,G,, | F,,12 | z2 F,,4 D,,2 F,,3 G,, | A,,2 G,,2 A,,4 _B,,2 G,,2 | %11
 A,,2 G,,2 A,,4 E,,4 | A,,12 ||[M:2/2] z8 | z8 | z8 | F,,3 G,, A,,F,, _B,,2 | %17
 A,,2 _B,,C, D,E, F,2- | F,E, D,4 ^C,2 | D,8- | D,8 | A,,8 | z2 D,,2 F,,3 G,, | A,,8 | %24
 z2 A,,2 C,3 D, | E,4 z2 E,2 | F,4 E,2 C,2 | D,2 B,,2 A,,4 | D,,8- | D,,8 | z2 D,,2 E,,2 C,,2 | %31
 D,,4 z2 G,,2 | A,,2 F,,2 G,,2 D,2 | E,2 F,2 E,2 F,2- | F,2 E,D, C,4- | C,2 F,,2 C,4 | %36
 D,2 C,B,, A,,4- | A,,4 z4 | z8 | z8 | z8 | F,,8- | F,,8 | F,,4 F,,4- | F,,2 F,,2 E,,4 | D,,4 D,4 | %46
 C,4 D,4 | C,4 A,,4 | _B,,8 | A,,8 ||[M:3/2] z12 | z12 | D,4 _B,,2 G,,2 A,,4 | %53
 G,,2 A,,2 F,,2 D,,2 E,,4 | D,,4 z2 G,,2 A,,4 | G,,2 A,,2 _B,,4 A,,4 | F,,2 D,,2 D,4 A,,4 | %57
 z2 F,4 E,D, E,4 | D,2 F,4 E,D, E,2 E,,2 | F,,G,, A,,2 D,,E,,F,,G,, A,,2 D,,2 | %60
 E,,4 z2 A,,2 C,3 _B,, | G,,A,,_B,,C, D,2 G,,2 A,,4 | D,,4 z4 D,,4 | A,,3 B,, C,2 A,,2 _B,,3 A,, | %64
 F,,8 z4 | F,,4 C,3 D, E,2 C,2 | D,3 C, A,,4 C,4 | D,2 C,2 D,2 B,,2 A,,4 | D,,12 |] %69

